X: 22391
T: Lad O'Beirne's
R: reel
M: 4/4
K: Dmajor
|:D2FD ADFA|dfed BAFE|D2FD ADFA|BF~F2 EDEF|
D2FD ADFA|BF~F2 DEFA|B2AF GABc|dBAF E3F:|
|:dcdf e2dA|BAFE DEFA|defe dBAF|Adfd eB~B2|
f2df ~e2dA|BAFE DEFA|B2AF GABc|dBAF E3F:|

